X:1
T:Title
T:Above All 
T: Simple piano score :  Susanna Chan 
T:Composer:  Paul Baloche and Lenny LeBlanc
C:Composer
L:1/8
Q:1/4=90
M:4/4
K:A
V:1 treble nm="Piano" snm="Pno."
V:1
 z4"A" z EAB |"A/E" c2 B2 AG- G2 |"D" F6 z G |"E7" A2 G2 FG- G2 |"A" A4 z CEA |: %5
"D" G2 F2"E7" z3 D |"E7" DE-EF"A" E4- |"A" E4 z CEA |"D" G2 F>G"E7" AG F/E/-E | %9
"A" E4"A/C#" z C C/E/-E |"F#m" F3 G"A/E" AG E/C/-C |"D" F4"A/C#" E4 |"Bm7" DDDE"D/A" FE D/C/-C | %13
"E/G#" B,4"A" z CEA |"D" G2 F2"E7" z3 D | D/E/-E- EF"A" E4- | E4 z CEA |"D" G2 F>G"E7" AG F/E/-E | %18
"A" E4 z C C/E/-E |"D" F3 G"A/E" AG E/C/-C |"D" F4"A/C#" E4 |"Bm7" DD D/E/-E"D/A" FEDC | %22
"C#sus4""C#" C8 |"A" c3 B"Bm7" d4 |"E/G#" Bcdc"A" c3 E |"A" c3 B"Bm7" d3 E |"E/G#" Bc d>c c2 cB | %27
"F#m" A4"A/E" cBAG |"D" F4"A/C#" z BAE |"Bm7" D4"A/C#" z E A>G |"D" A4"E" z F G>A |1 %31
"A" A4 z CEA ||2"A" A8 |"D""_dim." DEFG"E7sus4" A2 G2 |"A""D" !fermata!A8- |"E""A" A8 |] %36

